src/icons/lego.svg

<svg width="60" height="61" viewBox="0 0 60 61" xmlns="http://www.w3.org/2000/svg">
<path d="M0 44.7265L27.4 61V37.1527L0 20.7768V44.7265ZM51.3 12.6913V15.25C51.3 17.0923 47.8 18.6275 43.6 18.6275C39.3 18.6275 35.9 17.0923 35.9 15.25V11.0537C36.2 12.7936 39.5 14.2265 43.6 14.2265C47.9 14.2265 51.3 12.6913 51.3 10.849C51.3 9.00672 47.8 7.47148 43.6 7.47148C43.3 7.47148 42.9 7.47148 42.6 7.47148L37.6 4.50337V7.67617C37.6 9.51846 34.1 11.0537 29.9 11.0537C27.2 11.0537 24.9 10.4396 23.5 9.51846C23.3 9.31376 23.1 9.10906 22.8 8.90436C22.4 8.49496 22.2 8.08557 22.2 7.67617V4.6057L17.4 7.47148C17.1 7.47148 16.7 7.47148 16.3 7.47148C12 7.47148 8.60001 9.00672 8.60001 10.849C8.60001 12.6913 12.1 14.2265 16.3 14.2265C20.4 14.2265 23.7 12.7936 24 11.0537V15.25C24 17.0923 20.5 18.6275 16.3 18.6275C12 18.6275 8.60001 17.0923 8.60001 15.25V12.7936L2.60001 16.3758L30.1 32.7517L57.5 16.4782L51.3 12.6913ZM37.7 23.1309C37.7 24.9732 34.2 26.5084 30 26.5084C25.7 26.5084 22.3 24.9732 22.3 23.1309V18.9346C22.6 20.6745 25.9 22.1074 30 22.1074C34.1 22.1074 37.4 20.6745 37.7 18.9346V23.1309ZM32.6 37.3574V61L60 44.7265V21.0839L32.6 37.3574ZM29.9 6.75504C34.2 6.75504 37.6 5.2198 37.6 3.37752C37.6 1.53524 34.1 0 29.9 0C25.6 0 22.2 1.53524 22.2 3.37752C22.2 5.2198 25.6 6.75504 29.9 6.75504Z"/>
</svg>

<svg width="60" height="61" viewBox="0 0 60 61" xmlns="http://www.w3.org/2000/svg"><path d="M0 44.73 27.4 61V37.15L0 20.78v23.95Zm51.3-32.04v2.56c0 1.84-3.5 3.38-7.7 3.38-4.3 0-7.7-1.54-7.7-3.38v-4.2c.3 1.74 3.6 3.18 7.7 3.18 4.3 0 7.7-1.54 7.7-3.38 0-1.84-3.5-3.38-7.7-3.38h-1l-5-2.97v3.18c0 1.84-3.5 3.37-7.7 3.37-2.7 0-5-.61-6.4-1.53-.2-.2-.4-.41-.7-.62-.4-.4-.6-.81-.6-1.22V4.6l-4.8 2.86h-1.1C12 7.46 8.6 9 8.6 10.84c0 1.84 3.5 3.38 7.7 3.38 4.1 0 7.4-1.44 7.7-3.18v4.2c0 1.84-3.5 3.38-7.7 3.38-4.3 0-7.7-1.54-7.7-3.38v-2.46l-6 3.59 27.5 16.37 27.4-16.27-6.2-3.79ZM37.7 23.13c0 1.84-3.5 3.38-7.7 3.38-4.3 0-7.7-1.54-7.7-3.38v-4.2c.3 1.74 3.6 3.18 7.7 3.18s7.4-1.44 7.7-3.18v4.2Zm-5.1 14.23V61L60 44.73V21.08L32.6 37.36Zm-2.7-30.6c4.3 0 7.7-1.54 7.7-3.38C37.6 1.54 34.1 0 29.9 0c-4.3 0-7.7 1.54-7.7 3.38 0 1.84 3.4 3.38 7.7 3.38Z"/></svg>
